X: 4315
T: SIR KNIGHT, SIR LADY. (Bohemian Girl.)
%R: march
B: James Kerr "Merry Melodies" v.4 p.33 #315
Z: 2016 John Chambers <jc:trillian.mit.edu>
M: 2/4
L: 1/16
K: F
|:\
!p!(c3d/c/ A2)f2 | (c3d/c/ A2)f2 | e2g2d2e2 | (3(ded)c2 g2d2 |\
(c3d/c/ A2)f2 | (c3d/c/ A2)f2 | e2g2d2e2 | (3(ded)c2 f2z2 H:|
!f!a4 b4 | d2e2 f4 | !p!(3(abag2) (3(gagf2) | (abag2) (3(gagf2) |\
!f!a4 b4 | d2e2 f4 | !p!(3(fgf_e2) (3(efe_d2) | (=efe=d2) (3(ded"_D.C."c2) |]

%%sep 1 1 500
%%sep 1 1 500

